X:1
T:Gesammelte Motetten
T:Kommet, kommet, lasset uns anbeten
T:Johann Heinrich Rolle
T:Johann Heinrich Rolle
T:Kommet, kommet, lasset uns anbeten
T:CPDL - Creative Commons Attribution Non Commercial 3.0
T:CPDL - Creative Commons Attribution Non Commercial 3.0
T:CPDL - Creative Commons Attribution Non Commercial 3.0
T:CPDL - Creative Commons Attribution Non Commercial 3.0
T:CPDL - Creative Commons Attribution Non Commercial 3.0
T:CPDL - Creative Commons Attribution Non Commercial 3.0
T:CPDL - Creative Commons Attribution Non Commercial 3.0
T:CPDL - Creative Commons Attribution Non Commercial 3.0
T:CPDL - Creative Commons Attribution Non Commercial 3.0
T:CPDL - Creative Commons Attribution Non Commercial 3.0
T:CPDL - Creative Commons Attribution Non Commercial 3.0
C:Johann Heinrich Rolle
Z:CPDL - Creative Commons Attribution Non Commercial 3.0
%%score [ 1 2 3 4 ]
L:1/8
Q:1/4=100
M:4/4
K:Bb
V:1 treble nm="Sopran"
V:2 treble nm="Alt"
V:3 treble-8 nm="Tenor"
V:4 bass nm="Bass"
V:1
"^Moderato"!f! f4 A4 | B2 F2 z4 | G2 B2 e2 G2 | G2 F2 z2!mf! B2 | F4 F2 B2 | F6 d2 | c2 ed c2 B2 | %7
w: Kom- met,|kom- met,|las- set uns an-|be- ten und|knie- en und|nie- der-|fal- len _ vor dem|
 (B2 A>)!f!B c2 d2 | d2 c>B f2 d2 | d2 c2 z2 c2 | f2 c2 A2 F2 | c4 z2 =e2 | f2 c2 A2 F2 | %13
w: Herrn, _ der uns ge-|macht hat, der uns ge-|macht hat; denn|er ist un- ser|Gott, denn|er ist un- ser|
 d4 g2 =e2 | c4 f2 d2 | B3 c B2 (3AGA | !fermata!G4 z2 G2 || %17
w: Gott, un- ser|Gott, un- ser|Gott, ist un- ser _ _|Gott, und|
[M:6/8]!mf![Q:1/4=112]"^Allegro" AGA BAG | F=EF G3 | AGA BAG | F=EF G3 | ABc cd_e | efg gfe | %23
w: wir _ das Volk sei- ner|Wei- * de und|Scha- * fe sei- * ner|Her- * de, und|Scha- * fe sei- * ner|Her- * de, sei- * ner|
 (d3 c3) | B3 d=ef | (=e3 d3) | c2 z z3 | z6 | z2!f! c f=ed | cBc dcB | AGA BAG | c3 dcB | %32
w: Her- *|de, sei- * ner|Her- *|de,||und Scha- * fe,|Scha- * fe sei- * ner|Her- * de, Scha- * fe|sei- * * ner|
 (A3 G3) | F3!p! GFG | (AGA BAG) | F3 GFG | (AGA BAG) | F6- | F6- | !fermata!F3 z3 || %40
w: Her- *|de, sei- * ner|Her- * * * * *|de, sei- * ner|Her- * * * * *|de.|_||
[M:4/4][Q:1/4=100]"^Moderato""^Solo" f4 c4 | A>B c2 z4 | d2 d2 f2 d2 | d2 c2 z2 f2 | c4 c2 f2 | %45
w: Kom- met,|kom- * met|las- set uns an-|be- ten und|knie- en und|
 c6 f2 | fG G2 G2 AB | (B4 A2)"^Tutti" f2 | F6 f2 | F6 B2 | (c2 d4) e2 | d2 z d d2 g2 | %52
w: nie- der|fal- * len vor dem _|Herrn, _ und|nie- der|fal- len|vor _ dem|Herrn, der uns ge-|
 ^f>=e dd d2 B2 | B2 A2 z4 | z4 z2 d2 | =B2 c2 de f2 | e4 z2 e2 | A2 B2 cd e2 | d4 g2 e2 | %59
w: macht _ hat, der uns ge-|macht hat,|denn|er ist un- * ser|Gott, denn|er ist un- * ser|Gott, un- ser|
 (d4 c4-) | c4 z4 ||[M:6/8][Q:1/4=112]"^Allegro" z6 | z6 | z6 | z6 | z6 | z6 | z3 f3 | f3 f3 | %69
w: Gott. _|_|||||||Nun|dan- ket|
 g3 g3 | f6- | f3 z3 | z3 d3 | e3 d3 | c3 d3 | c6 | B6 | z6 | z3 f3 | f3 f3 | g3 g3 | f6- | f3 z3 | %83
w: Al- le|Gott|_|mit|Her- zen|Mund und|Hän-|den,||der|gro- ße|Din- ge|tut|_|
 z3 d3 | e3 d3 | c3 d3 | c6 | B3 z3 | z6 | z3 c3 | c3 c3 | d3 d3 | c6- | c3 z3 | z3 c3 | d3 f3 | %96
w: an|uns und|al- len|En-|den,||der|uns so|vä- ter-|lich|_|von|uns- rer|
 f3 =e3 | f6- | f3 z3 | z3 f3 | g3 f3 | e3 d3 | e6 | z3 d3 | c3 d3 | c3 c3 | B6- | B6- | B6 | %109
w: Kind- heit|an|_|bis|die- sen|Au- gen-|blick|un-|zäh- lig|Gut´s ge-|tan,|_||
 B3 A3 | B6- | B6- | !fermata!B6 |] %113
w: Gut´s ge-|tan.|_||
V:2
!f! B4 E4 | D2 D2 z4 | E2 G2 G2 E2 | E2 D2 z2!mf! F2 | E4 D2 F2 | (E4 D2) F2 | G2 G2 G2 G2 | %7
w: |||||||
 (G2 F>)!f!B c2 B2 | B2 A>B c2 B2 | B2 A2 z4 | z4 z2 A2 | G2 G>A B2 B2 | A4 c2 c2 | B4 B2 G2 | %14
w: |||denn|er ist _ un- ser|Gott, * *||
 G4 F2 F2 | F2 =E2 F2 F2 | !fermata!=E4 z2 E2 ||[M:6/8]!mf! F2 F FFF | F=EF E3 | F2 F F2 F | %20
w: ||||||
 F=EF E3 | F2 F F2 F | A3 A3 | F3 F3- | F3 G2 G | G6 | G2 c dc=B | c=Bc dcB | c2!f! c A2 _B | %29
w: |Scha- fe sei- ner|Her- de,|sei- ner|_ sei- ner|Her-|de, und Scha- * fe|sei- * ner Her- * *|de, und Scha- fe,|
 F2 F F2 F | F3 F3 | F3- F2 G | (F3 =E3) | F3!p! =E2 E | F6 | F3 =E2 E | F6 | F3 DCB, | (C3 DCB,) | %39
w: Scha- fe sei- ner|Her- de,|sei- * ner|Her- *|de, sei- ner|Her-|de, sei- ner|Her-|de, sei- * ner|Her- * * *|
 !fermata!C3 z3 ||[M:4/4] A4 G4 | F>G A2 z4 | F2 F2 F2 F2 | F2 F2 z2 A2 | G4 F2 A2 | (G4 F2) F2 | %46
w: de.|Kom- met,|kom- * met|las- set uns an-|be- ten und|knie- en und|nie- * der-|
 F2 F2 =E2 FG | (G4 F2) z2 | z2 E2 D2 D2 | (E4 D2) D2 | G4 F4 | F2 z ^F G2 B2 | A>G ^FF G2 G2 | %53
w: fal- len vor dem _|Herrn, _|und nie- der|fal- * len|vor dem|Herrn, der uns ge-|macht _ hat, der uns ge-|
 G2 ^F2 z4 | z4 z2 ^F2 | G2 A2 =Bc d2 | c4 z2 G2 | F2 G2 AB c2 | B4 B2 c2 | (B4 A4-) | A4 z2 F2 || %61
w: macht hat,|denn|er ist un- * ser|Gott, denn|er ist un- * ser|Gott, un- ser|Gott, _|_ und|
[M:6/8] AGA BAG | F=EF d3 | cBA BAG | F=EF c3 | B3 F3 | FEF GFE | (DCD EDC) | D3 z2 B | B2 B B2 B | %70
w: wir _ das Volk sei- ner|Wei- * de und|Scha- * fe sei- * ner|Her- * de, und|Scha- fe,|Scha- * fe sei- * ner|Her- * * * * *|de, denn|er ist un- ser|
 B2 d cBA | BAB cBA | B3 z2 B | AGF B2 F | F3 F2 B | ced cBA | BAB _A3 | G_AG FB=A | BAB B2 z | %79
w: Gott und wir _ das|Volk sei- ner Wei- * *|de, und|Scha- * fe sei- ner|Her- de, und|Scha- * fe sei- * ner|Her- * de, und|Scha- * fe sei- * ner|Her- * * de,|
 z3 z2 B | B2 B B2 B | B2 d c2 c | BAB F3 | F2 z z2 B | AGF B2 B | F3 F2 d | ced cBA | BAB B3 | %88
w: denn|er ist un- ser|Gott und wir das|Volk sei- ner Wei-|de, und|Scha- * fe sei- ner|Her- de, und|Scha- * fe sei- * ner|Her- * * de,|
 Bcd dcB | AGF z2 F | =EDE F2 F | F2 z z3 | z2 A GF=E | F=EF (GFE | F=E)F z3 | z2 d cBA | %96
w: Scha- * fe sei- * ner|Her- * de, denn|er _ ist un- ser|Gott|und wir _ das|Volk sei- ner Wei- * *|* * de,|und Scha- * fe|
 G2 G GAB | A2 A BAG | AGF BAG | AGF F2 z | z3 z B_A | G_AB AGA | G2 G GFG | F3 F2 B | AGA B2 B | %105
w: sei- ner Her- * *|de, und Scha- * fe|sei- * ner, sei- * ner,|Her- * * de,|er ist|un- * ser, un- * ser|Gott und wir _ das|Volk, wir das|Volk _ _ sei- ner|
 (B3 A3) | B2 _A AGF | G2 G GFE | F2 F FED | E2 E EDE | D3!p! G_AG | (F3 E3) | !fermata!D6 |] %113
w: Wei- *|de, und Scha- * fe|sei- ner, Her- * *|de, und Scha- * fe|sei- ner Her- * *|de, sei- * ner|Her- *|de.|
V:3
!f! d4 c4 | B2 B2 z4 | B2 B2 B2 B2 | B2 B2 z2!mf! d2 | c4 B2 d2 | (c4 B2) B2 | G2 c2 c2 c2 | %7
w: Kom- met,|kom- met,|las- set uns an-|be- ten und|knie- en und|nie- * der-|fal- len vor dem|
 c2 z3/2!f! f/ f2 f2 | f2 f>f f2 f2 | f2 F2 z4 | z4 z2 c2 | c2 =e>f g2 g2 | f4 f2 f2 | f4 =e2 e2 | %14
w: Herrn, der uns ge-|macht hat, der uns ge-|macht hat;|denn|er ist _ un- ser|Gott, un- ser|Gott, un- ser|
 =e4 d2 d2 | d2 c2 c2 c2 | !fermata!c4 z2 c2 ||[M:6/8]!mf! cBc dcB | AGA B3 | cBc dcB | AGA B3 | %21
w: Gott, un- ser|Gott, ist un- ser|Gott, und|wir _ das Volk sei- ner|Wei- * de und|Scha- * fe sei- * ner|Her- * de, und|
 cBA ABc | cde edc | (B3 e3) | d3 d2 d | (c3 f3) | =e2 e fed | =ede fed | =e2!f! e def | f2 F z3 | %30
w: Scha- * fe sei- * ner|Her- * de, sei- * ner|Her- *|de, sei- ner|||||Scha- fe,|
 z2 c dcB | ABc Bcd | (c3 B3) | A3!p! BAB | (cBc dcB) | A3 BAB | (cBc dcB) | A3 BAG | (A3 BAG) | %39
w: und Scha- * fe,|Scha- * fe sei- * ner|Her- *|de, sei- * ner||||||
 !fermata!A3 z3 ||[M:4/4] c4 c4 | c2 F2 z4 | B2 B2 d2 B2 | B2 A2 z2 c2 | B4 A2 c2 | (B4 A2) c2 | %46
w: |||||||
 d2 d2 c2 c2 | c6 z2 | z2 c2 B2 B2 | (c4 B2) B2 | B6 A2 | B2 z c d2 d2 | d2 dA B2 d2 | d2 d2 z4 | %54
w: ||||||||
 z4 z2 d2 | d2 G2 g2 g2 | g4 z2 c2 | c2 F2 f2 f2 | f4 e2 g2 | f8- | f4 z2 A2 ||[M:6/8] cBc dcB | %62
w: ||||||||
 AGA B3 | ABc dcB | AGA e3 | d3 e3 | dcd edc | (BAB cBA) | B3 z2 d | e2 e e2 e | d2 f edc | %71
w: |||||||||
 dcd edc | d3 z3 | z2 f fdB | (e3 d2) f | (g2 f ede) | d3 f3 | efe d2 c | dcd d2 z | z3 z2 d | %80
w: ||und Scha- * fe|sei- * ner|Her- * * * *|de, und||||
 e2 e e2 e | d2 f e2 e | dcd e3 | d2 z z3 | z2 f fdB | (e3 d2) f | (g2 f ede) | d3 g2 f | %88
w: ||||und Scha- * fe|sei- * ner|Her- * * * *|de, sei- ner|
 (f3 =e3) | f2 z z3 | z2 c AFA | B2 z z3 | z2 c BAG | AGA (BAG | AG)A z3 | z3 z2 c | d3 c3 | %97
w: Her- *|de,|ist un- * ser|||||und|Scha- fe|
 c2 c dcB | cBA dcB | cBA B2 z | z3 z dd | efg fef | e2 e ede | e3 z3 | z2 f dcB | ede (f2 e) | %106
w: sei- ner Her- * de,|sei- * ner, sei- * ner|||||Volk|und Scha- * fe|sei- * ner Her- *|
 d3 fed | e2 e edc | d2 d dcB | c2 c cBc | B3!p! efe | (d3 c3) | !fermata!B6 |] %113
w: de, Scha- * fe|sei- ner, * * *||||||
V:4
!f! B,4 F,4 | B,,2 B,>A, B,2 B,,2 | E,6 E,2 | B,4 B,,2!mf! B,2 | (A,2 F,2) B,2 B,,2 | %5
w: Kom- met,|kom- met _ las- set|uns an-|be- ten *||
 (A,2 F,2 B,2) B,,2 | E,2 E,2 E,2 =E,2 | F,2 z3/2!f! G,/ A,2 B,2 | F,2 F,>G, A,2 B,2 | F,2 F,2 z4 | %10
w: |||||
 z4 z2 F,2 | =E,2 G,2 E,2 C,2 | F,4 F,2 A,2 | B,4 =E,2 G,2 | A,4 D,2 F,2 | G,2 C,2 F,2 F,2 | %16
w: ||||||
 !fermata!C,4 z2 C,2 ||[M:6/8]!mf! F,3 F,3 | F,3 F,2 F, | F,6 | F,3 F,3 | F,3 F,3- | F,3 z2 F, | %23
w: |wir das|Volk sei- ner|Wei-|de und|Scha- fe,|_ und|
 B,F,B, A,F,A, | B,A,B, =B,3 | CG,C =B,G,B, | CG,C C3- | C3 C,3 | z2!f! C DCB, | A,G,A, B,A,G, | %30
w: Scha- * fe sei- * ner|Her- * de, und|Scha- * fe sei- * ner|Her- * de, Scha-|* fe,|und Scha- * fe,|Scha- * fe sei- * ner|
 F,6- | F,G,A, B,2 B, | (C3 C,3) | F,3!p! F,3 | F,6- | F,2 F, F,2 F, | F,6 | F,3 z3 | F,2 F, F,3 | %39
w: Her-|* * de, sei- ner|Her- *|de, und|Scha-|* fe sei- ner|Her-|de,|sei- ner Her-|
 !fermata!F,2 z z3 ||[M:4/4] F,4 =E,4 | F,2 F,>=E, F,2 F,2 | F,4 F,4 | F,4 F,2 F,2 | %44
w: de.|Kom- met,|kom- met, * las- set|uns an-|be- ten und|
 (=E,2 C,2) F,2 F,2 | (=E,2 C,2 F,2) A,2 | B,2 B,,2 C,2 C,2 | F,6 z2 | z2 A,2 B,2 B,,2 | %49
w: knie- * en und|nie- * * der-|fal- len vor dem|Herrn,|und nie- der-|
 (A,2 F,2 B,2) B,,2 | E,4 F,4 | B,2 z A, B,2 G,2 | D2 D,C B,2 G,2 | D,2 D,2 z2 A,2 | %54
w: fal- * * len|vor dem|Herrn, der uns ge-|macht hat, der uns ge-|macht hat, denn|
 D2 A,2 ^F,2 D,2 | G,4 z2 G,2 | C2 G,2 E,2 C,2 | F,4 F,2 F,2 | B,4 E,2 E,2 | F,8- | F,4 z2 F,2 || %61
w: er ist un- ser|Gott, denn|er ist un- ser|Gott, un- ser|Gott, un- ser|Gott,|_ und|
[M:6/8] F,3 F,3 | F,3 F,2 F, | F,6 | F,3 F,G,A, | B,F,B, A,F,A, | B,2 B, E,2 E, | F,6 | B,,3 z3 | %69
w: wir das|Volk sei- ner|Wei-|de und _ _|Scha- * fe sei- * ner|Her- de, sei- ner|Her-|de,|
 z E,F, G, G,A, | B,2 B, F,2 F, | B,,3 F,2 F, | B,A,B, B,,2 z | z3 z2 B, | A,G,F, B,A,B, | %75
w: er ist un- ser _|Gott und wir das|Volk sei- ner|Wei- * * de,|und|Scha- * fe sei- * ner|
 (E,3 F,3) | G,3 D,C,D, | (E,3 F,3 | B,3) B,,2 z | z6 | z E,F, G, G,A, | B,2 B, A,F,A, | %82
w: Her- *|de, sei- * ner|Her- *|* de,||er ist un- ser _|Gott und wir _ das|
 B,3 A,F,A, | B,A,B, B,,2 z | z3 z2 B, | A,G,F, B,A,B, | (E,3 F,3) | G,3 G,A,B, | (C3 C,3) | %89
w: Volk sei- * ner|Wei- * * de,|und|Scha- * fe sei- * ner|Her- *|de, sei- * ner|Her- *|
 F,2 z z3 | z3 z2 F, | D,C,B,, B,A,B, | F,3 C3 | F,3 C,3 | F,3 F,G,A, | B,CB, A,G,F, | %96
w: de,|denn|er _ ist un- * ser|Gott und|wir das|Volk, wir _ das|Volk sei- ner Wei- * de,|
 B,A,B, CB,C | F,3 F,3 | F,3 F,3 | F,2 E, D,C,B,, | E,G,_A, B,3 | B,6 | E,3 C2 B, | %103
w: sei- * ner Wei- * *|de, und|Scha- fe|sei- ner Her- * de,|sei- * * ner|Her-|de, Scha- fe|
 =A,G,F, B,A,B, | F,6- | F,6 | B,,2 z z3 | B,3 B,3 | B,3 B,,3 | F,6 | B,,3 B,,3 | B,,3 B,,3 | %112
w: sei- * ner, sei- * ner|Her-||de,|Scha- fe|sei- ner|Her-|de, sei-|ner Her-|
 !fermata!B,,6 |] %113
w: de.|

